X:1
T:Title
%%score { ( 1 3 4 ) | ( 2 5 ) }
L:1/8
M:4/4
K:Ab
V:1 treble nm="Grand Piano"
V:3 treble 
V:4 treble 
V:2 bass 
V:5 bass 
V:1
 z4 z2[Q:1/4=100] [CE][C=E] | [_CF]2 [=CE]2- [CE][CA][DB][Ec] | [Fd]2 [Ec]4 [Ec][Ec] | %3
 z [DB]3- [DB]2 z2 | z A3- A z z2 | A2 [EG]4 z2 | z A,A,A, z c[GB][FA] | [EG]2 [Ge]4 z2 | %8
 e2 c2- ccBA | A2 [EG]4 z2 | z A,A,A, z c[GB][FA] | [EG]2 [Ge]4 z2 |[M:3/4] [DEB]2 [CEA]4 | %13
[M:1/4] [Ae][Ae] |[M:4/4] [Ge]2 [Gd]4 z2 | [DB]2 z A, A,A,ee | [Ge]2 [Gd]2 z2 [Gf]2 | e6 z2 | %18
 [Ge]2 [Gd]4 z2 | B2 [CA]4 z2 |[M:9/8] EAc [Af][Ae][EAc]- [EAc]<[DGB][CEA] |[M:3/4] [CEA]6 |] %22
V:2
 z4 z2 [A,,A,][A,,A,] | [A,,A,]2 [A,,A,]2- [A,,A,][A,,A,][A,,A,][A,,A,] | %2
 [A,,A,]2 [A,,A,]4 [A,,A,][A,,A,] | [E,A,][E,G,]E,E, E,E,[E,G,D][E,G,D] | %4
 [A,,A,][A,,A,][A,,G,][A,,F,] [A,,E,][K:treble]AGF | F2[K:bass] z2 E,2[K:treble] z2 | %6
 D2[K:bass] z2 A,,2 z2 | .[E,B,]2 [E,B,]2 z [E,D][E,D][E,D] | [A,CA]2 [A,E]2- [A,E]AGF | %9
 F2[K:bass] z2 E,2[K:treble] z2 | D2[K:bass] z2 A,,2 z2 | .[E,B,]2 [E,B,]2 E,E,E,E, | %12
[M:3/4] E,2 A,,4 |[M:1/4] [A,C][A,C] |[M:4/4] .[E,B,]2 [E,B,]E, E,[E,B,F][E,G,E][E,G,D] | %15
 [A,,A,][A,,A,][A,,A,]A,, A,,A,,[K:treble][A,CA][A,CA] | .[E,B,]2 [E,B,]E, [E,B,D]2 [E,D]E, | %17
 [A,CA][A,D][A,E][A,F] [A,E][A,D][A,CA][A,CA] | .[E,B,]2 [E,B,]E, E,[E,B,F][E,G,E][E,G,D] | %19
 D-[F,D]F,F, F,F,[D,A,_C][D,A,C] |[M:9/8] [E,A,C][E,CE][A,E] [D,D][E,C]E,- E,<E,A,, | %21
[M:3/4] A,,6 |] %22
V:3
 x8 | x8 | x8 | .[Ec]2 G,G, G,G,BB | [DB]CED CcBA | z B,B,B, z BAG | F2 [CE]4 z2 | %7
 z [E,B,] z2 [E,B,][Gf][Ge][Gf] | x8 | z B,B,B, z BAG | F2 [CE]4 z2 | %11
 z [E,B,] z2 B,[FGd][EAc][DEB] |[M:3/4] x6 |[M:1/4] x2 |[M:4/4] z [E,B,] z B, B,dcB | z2 [CE]4 z2 | %16
 z [E,B,] z B, G2 z D | z Bcd cBee | z [E,B,] z B, B,dcB | z A,A,A, A,A,GF |[M:9/8] x9 | %21
[M:3/4] x6 |] %22
V:4
 x8 | x8 | x8 | x8 | x8 | z4 B,2 z2 | z4 A,2 z2 | x8 | x8 | z4 B,2 z2 | z4 A,2 z2 | x8 | %12
[M:3/4] x6 |[M:1/4] x2 |[M:4/4] x8 | x8 | x8 | x8 | x8 | x8 |[M:9/8] x9 |[M:3/4] x6 |] %22
V:5
 x8 | x8 | x8 | x8 | x5[K:treble] x3 | z[K:bass] E,E,E, z[K:treble] G[E,G,F]E | %6
 z[K:bass] A,,A,,A,, z A[A,,A,][A,,A,] | x8 | x8 | z[K:bass] E,E,E, z[K:treble] G[E,G,F]E | %10
 z[K:bass] A,,A,,A,, z A[A,,A,][A,,A,] | x8 |[M:3/4] x6 |[M:1/4] x2 |[M:4/4] x8 | x6[K:treble] x2 | %16
 x8 | x8 | x8 | .[F,A,]2 z2 z4 |[M:9/8] x9 |[M:3/4] x6 |] %22

